_includes/icons/color-to-do.svg

<svg fill="#666" height="50" viewBox="0 0 48 48" width="50" xmlns="http://www.w3.org/2000/svg"><g fill="#90caf9"><path d="m4 9h21v4h-21z"/><path d="m4 22h21v4h-21z"/><path d="m4 35h21v4h-21z"/></g><path d="m30.054688 33.308594 2.234375-2.242188 9.683593 9.710938-2.234375 2.242187z" fill="#f44336"/><path d="m32.289063 43.019531-2.234375-2.242187 9.683593-9.710938 2.234375 2.242188z" fill="#f44336"/><g fill="#4caf50"><path d="m31.269531 7.121094 6.367188 6.363281-2.121094 2.121094-6.367187-6.363281z"/><path d="m35.515625 15.605469-2.121094-2.121094 8.484375-8.484375 2.121094 2.121094z"/><path d="m31.273438 19.121094 6.363281 6.363281-2.121094 2.121094-6.367187-6.363281z"/><path d="m35.515625 27.605469-2.121094-2.121094 8.484375-8.484375 2.121094 2.121094z"/></g></svg>

<svg xmlns="http://www.w3.org/2000/svg" viewBox="0 0 48 48" width="50" height="50" fill="#666"><path d="M 4 9 L 25 9 L 25 13 L 4 13 Z" fill="#90caf9"/><path d="M 4 22 L 25 22 L 25 26 L 4 26 Z" fill="#90caf9"/><path d="M 4 35 L 25 35 L 25 39 L 4 39 Z" fill="#90caf9"/><path d="M 30.054688 33.308594 L 32.289063 31.066406 L 41.972656 40.777344 L 39.738281 43.019531 Z" fill="#f44336"/><path d="M 32.289063 43.019531 L 30.054688 40.777344 L 39.738281 31.066406 L 41.972656 33.308594 Z" fill="#f44336"/><path d="M 31.269531 7.121094 L 37.636719 13.484375 L 35.515625 15.605469 L 29.148438 9.242188 Z" fill="#4caf50"/><path d="M 35.515625 15.605469 L 33.394531 13.484375 L 41.878906 5 L 44 7.121094 Z" fill="#4caf50"/><path d="M 31.273438 19.121094 L 37.636719 25.484375 L 35.515625 27.605469 L 29.148438 21.242188 Z" fill="#4caf50"/><path d="M 35.515625 27.605469 L 33.394531 25.484375 L 41.878906 17 L 44 19.121094 Z" fill="#4caf50"/></svg>
